; G-Code generated by Simplify3D(R) Version 4.1.2
; Jul 24, 2020 at 2:16:53 PM
; Settings Summary
;   processName,Process1
;   applyToModels,DewaltBatteryCap
;   profileName,RigidBot Regular Single (modified)
;   profileVersion,2019-10-23 23:03:56
;   baseProfile,
;   printMaterial,PLA
;   printQuality,High
;   printExtruders,
;   extruderName,Primary Extruder
;   extruderToolheadNumber,0
;   extruderDiameter,0.4
;   extruderAutoWidth,0
;   extruderWidth,0.4
;   extrusionMultiplier,0.9
;   extruderUseRetract,1
;   extruderRetractionDistance,1
;   extruderExtraRestartDistance,0
;   extruderRetractionZLift,0
;   extruderRetractionSpeed,1800
;   extruderUseCoasting,0
;   extruderCoastingDistance,0.2
;   extruderUseWipe,0
;   extruderWipeDistance,5
;   primaryExtruder,0
;   layerHeight,0.3
;   topSolidLayers,4
;   bottomSolidLayers,4
;   perimeterOutlines,4
;   printPerimetersInsideOut,1
;   startPointOption,2
;   startPointOriginX,0
;   startPointOriginY,0
;   sequentialIslands,0
;   spiralVaseMode,0
;   firstLayerHeightPercentage,90
;   firstLayerWidthPercentage,100
;   firstLayerUnderspeed,0.5
;   useRaft,0
;   raftExtruder,0
;   raftTopLayers,3
;   raftBaseLayers,2
;   raftOffset,3
;   raftSeparationDistance,0.14
;   raftTopInfill,100
;   aboveRaftSpeedMultiplier,0.3
;   useSkirt,1
;   skirtExtruder,0
;   skirtLayers,2
;   skirtOutlines,2
;   skirtOffset,4
;   usePrimePillar,0
;   primePillarExtruder,999
;   primePillarWidth,12
;   primePillarLocation,7
;   primePillarSpeedMultiplier,1
;   useOozeShield,0
;   oozeShieldExtruder,999
;   oozeShieldOffset,2
;   oozeShieldOutlines,1
;   oozeShieldSidewallShape,1
;   oozeShieldSidewallAngle,30
;   oozeShieldSpeedMultiplier,1
;   infillExtruder,0
;   internalInfillPattern,Rectilinear
;   externalInfillPattern,Rectilinear
;   infillPercentage,20
;   outlineOverlapPercentage,15
;   infillExtrusionWidthPercentage,100
;   minInfillLength,5
;   infillLayerInterval,1
;   internalInfillAngles,45,-45
;   overlapInternalInfillAngles,0
;   externalInfillAngles,45,-45
;   generateSupport,1
;   supportExtruder,0
;   supportInfillPercentage,40
;   supportExtraInflation,0
;   supportBaseLayers,0
;   denseSupportExtruder,0
;   denseSupportLayers,0
;   denseSupportInfillPercentage,70
;   supportLayerInterval,1
;   supportHorizontalPartOffset,0.3
;   supportUpperSeparationLayers,1
;   supportLowerSeparationLayers,1
;   supportType,0
;   supportGridSpacing,1
;   maxOverhangAngle,45
;   supportAngles,0,90
;   temperatureName,Primary Extruder Temperature,Heated Bed
;   temperatureNumber,0,2
;   temperatureSetpointCount,1,1
;   temperatureSetpointLayers,1,1
;   temperatureSetpointTemperatures,210,50
;   temperatureStabilizeAtStartup,1,1
;   temperatureHeatedBed,0,1
;   fanLayers,1,2
;   fanSpeeds,0,100
;   blipFanToFullPower,0
;   adjustSpeedForCooling,1
;   minSpeedLayerTime,15
;   minCoolingSpeedSlowdown,20
;   increaseFanForCooling,0
;   minFanLayerTime,45
;   maxCoolingFanSpeed,100
;   increaseFanForBridging,0
;   bridgingFanSpeed,100
;   use5D,1
;   relativeEdistances,0
;   allowEaxisZeroing,1
;   independentExtruderAxes,0
;   includeM10123,0
;   stickySupport,1
;   applyToolheadOffsets,0
;   gcodeXoffset,0
;   gcodeYoffset,0
;   gcodeZoffset,0
;   overrideMachineDefinition,1
;   machineTypeOverride,0
;   strokeXoverride,254
;   strokeYoverride,254
;   strokeZoverride,254
;   originOffsetXoverride,0
;   originOffsetYoverride,0
;   originOffsetZoverride,0
;   homeXdirOverride,-1
;   homeYdirOverride,-1
;   homeZdirOverride,-1
;   flipXoverride,1
;   flipYoverride,-1
;   flipZoverride,1
;   toolheadOffsets,0,0|44,0|0,0|0,0|0,0|0,0
;   overrideFirmwareConfiguration,1
;   firmwareTypeOverride,RepRap (Marlin/Repetier/Sprinter)
;   GPXconfigOverride,r2
;   baudRateOverride,115200
;   overridePrinterModels,1
;   printerModelsOverride
;   startingGcode,G28 ; home all axes
;   layerChangeGcode,
;   retractionGcode,
;   toolChangeGcode,
;   endingGcode,G28 X0,M104 S0 T0 ; turn off extruder,M140 S0 ; turn off bed,M84 ; disable motors
;   exportFileFormat,gcode
;   celebration,0
;   celebrationSong,Random Song
;   postProcessing,
;   defaultSpeed,3600
;   outlineUnderspeed,0.5
;   solidInfillUnderspeed,0.8
;   supportUnderspeed,0.8
;   rapidXYspeed,4800
;   rapidZspeed,1000
;   minBridgingArea,50
;   bridgingExtraInflation,0
;   bridgingExtrusionMultiplier,1
;   bridgingSpeedMultiplier,1
;   useFixedBridgingAngle,0
;   fixedBridgingAngle,0
;   applyBridgingToPerimeters,0
;   filamentDiameters,1.75|1.75|1.75|1.75|1.75|1.75
;   filamentPricesPerKg,46|46|46|46|46|46
;   filamentDensities,1.25|1.25|1.25|1.25|1.25|1.25
;   useMinPrintHeight,0
;   minPrintHeight,0
;   useMaxPrintHeight,0
;   maxPrintHeight,0
;   useDiaphragm,0
;   diaphragmLayerInterval,20
;   robustSlicing,1
;   mergeAllIntoSolid,0
;   onlyRetractWhenCrossingOutline,1
;   retractBetweenLayers,1
;   useRetractionMinTravel,0
;   retractionMinTravel,3
;   retractWhileWiping,0
;   onlyWipeOutlines,1
;   avoidCrossingOutline,0
;   maxMovementDetourFactor,3
;   toolChangeRetractionDistance,12
;   toolChangeExtraRestartDistance,-0.5
;   toolChangeRetractionSpeed,600
;   externalThinWallType,0
;   internalThinWallType,2
;   thinWallAllowedOverlapPercentage,10
;   singleExtrusionMinLength,1
;   singleExtrusionMinPrintingWidthPercentage,50
;   singleExtrusionMaxPrintingWidthPercentage,200
;   singleExtrusionEndpointExtension,0.2
;   horizontalSizeCompensation,0
G90
M82
M106 S0
M140 S50
M190 S50
M104 S210 T0
M109 S210 T0
G28 ; home all axes
; process Process1
; layer 1, Z = 0.270
T0
G92 E0.0000
G1 E-1.0000 F1800
; feature skirt
; tool H0.270 W0.400
G1 Z0.270 F1000
G1 X99.875 Y102.020 F4800
G1 E0.0000 F1800
G92 E0.0000
G1 X111.125 Y102.020 E0.4547 F1800
G1 X111.185 Y102.080 E0.4581
G1 X142.815 Y102.080 E1.7363
G1 X142.875 Y102.020 E1.7397
G1 X154.125 Y102.020 E2.1943
G1 X156.820 Y104.715 E2.3483
G1 X156.820 Y128.965 E3.3283
G1 X154.125 Y131.660 E3.4823
G1 X142.875 Y131.660 E3.9370
G1 X142.815 Y131.600 E3.9404
G1 X111.185 Y131.600 E5.2186
G1 X111.125 Y131.660 E5.2220
G1 X99.875 Y131.660 E5.6767
G1 X97.180 Y128.965 E5.8307
G1 X97.180 Y104.715 E6.8107
G1 X99.875 Y102.020 E6.9647
G92 E0.0000
G1 E-1.0000 F1800
G1 X100.040 Y102.420 F4800
G1 E0.0000 F1800
G92 E0.0000
G1 X110.960 Y102.420 E0.4413 F1800
G1 X111.020 Y102.480 E0.4447
G1 X142.980 Y102.480 E1.7363
G1 X143.040 Y102.420 E1.7397
G1 X153.960 Y102.420 E2.1809
G1 X156.420 Y104.880 E2.3216
G1 X156.420 Y128.800 E3.2882
G1 X153.960 Y131.260 E3.4288
G1 X143.040 Y131.260 E3.8700
G1 X142.980 Y131.200 E3.8735
G1 X111.020 Y131.200 E5.1650
G1 X110.960 Y131.260 E5.1685
G1 X100.040 Y131.260 E5.6097
G1 X97.580 Y128.800 E5.7503
G1 X97.580 Y104.880 E6.7169
G1 X100.040 Y102.420 E6.8575
G92 E0.0000
G1 E-1.0000 F1800
; feature inner perimeter
G1 X112.197 Y108.080 F4800
G1 E0.0000 F1800
G92 E0.0000
G1 X113.109 Y108.080 E0.0369 F1350
G1 X113.190 Y108.329 E0.0474
G1 X112.879 Y108.555 E0.0630
G1 X112.197 Y109.258 E0.1025
G1 X112.197 Y108.080 E0.1501
G1 X118.572 Y108.329 F4800
G92 E0.0000
G1 X118.653 Y108.080 E0.0106 F1350
G1 X135.347 Y108.080 E0.6852
G1 X135.428 Y108.329 E0.6957
G1 X135.117 Y108.555 E0.7113
G1 X134.571 Y109.117 E0.7430
G1 X134.130 Y109.764 E0.7746
G1 X133.805 Y110.476 E0.8062
G1 X133.606 Y111.234 E0.8379
G1 X133.539 Y112.014 E0.8695
G1 X133.606 Y112.794 E0.9012
G1 X133.805 Y113.552 E0.9328
G1 X134.130 Y114.264 E0.9645
G1 X134.571 Y114.911 E0.9961
G1 X135.117 Y115.473 E1.0278
G1 X135.750 Y115.934 E1.0594
G1 X136.084 Y116.099 E1.0745
G1 X136.084 Y116.588 E1.0942
G1 X140.154 Y116.590 E1.2587
G1 X140.154 Y116.099 E1.2786
G1 X140.488 Y115.934 E1.2936
G1 X141.121 Y115.473 E1.3253
G1 X141.803 Y114.770 E1.3648
G1 X141.803 Y125.600 E1.8025
G1 X112.197 Y125.600 E2.9989
G1 X112.197 Y114.770 E3.4365
G1 X112.879 Y115.473 E3.4761
G1 X113.512 Y115.934 E3.5077
G1 X113.846 Y116.099 E3.5228
G1 X113.846 Y116.588 E3.5425
G1 X117.916 Y116.590 E3.7070
G1 X117.916 Y116.099 E3.7269
G1 X118.250 Y115.934 E3.7419
G1 X118.883 Y115.473 E3.7736
G1 X119.429 Y114.911 E3.8052
G1 X119.870 Y114.264 E3.8369
G1 X120.195 Y113.552 E3.8685
G1 X120.394 Y112.794 E3.9002
G1 X120.461 Y112.014 E3.9318
G1 X120.394 Y111.234 E3.9634
G1 X120.195 Y110.476 E3.9951
G1 X119.870 Y109.764 E4.0267
G1 X119.429 Y109.117 E4.0584
G1 X118.883 Y108.555 E4.0900
G1 X118.572 Y108.329 E4.1056
G1 X140.810 Y108.329 F4800
G92 E0.0000
G1 X140.891 Y108.080 E0.0106 F1350
G1 X141.803 Y108.080 E0.0474
G1 X141.803 Y109.258 E0.0950
G1 X141.121 Y108.555 E0.1346
G1 X140.810 Y108.329 E0.1501
G1 X140.858 Y108.858 F4800
G92 E0.0000
G1 X140.281 Y108.438 E0.0289 F1350
G1 X139.754 Y108.178 E0.0526
G1 X139.754 Y107.680 E0.0727
G1 X142.203 Y107.680 E0.1717
G1 X142.203 Y110.252 E0.2756
G1 X141.919 Y110.314 E0.2874
G1 X141.759 Y109.961 E0.3030
G1 X141.356 Y109.371 E0.3319
G1 X140.858 Y108.858 E0.3608
G1 X136.484 Y108.178 F4800
G92 E0.0000
G1 X135.957 Y108.438 E0.0237 F1350
G1 X135.380 Y108.858 E0.0526
G1 X134.882 Y109.371 E0.0815
G1 X134.479 Y109.961 E0.1103
G1 X134.183 Y110.611 E0.1392
G1 X134.001 Y111.302 E0.1681
G1 X133.940 Y112.014 E0.1970
G1 X134.001 Y112.726 E0.2258
G1 X134.183 Y113.417 E0.2547
G1 X134.479 Y114.067 E0.2836
G1 X134.882 Y114.657 E0.3124
G1 X135.380 Y115.170 E0.3413
G1 X135.957 Y115.590 E0.3702
G1 X136.484 Y115.850 E0.3939
G1 X136.484 Y116.188 E0.4076
G1 X139.754 Y116.190 E0.5397
G1 X139.754 Y115.850 E0.5534
G1 X140.281 Y115.590 E0.5772
G1 X140.858 Y115.169 E0.6061
G1 X141.356 Y114.657 E0.6349
G1 X141.759 Y114.067 E0.6638
G1 X141.919 Y113.714 E0.6795
G1 X142.203 Y113.776 E0.6912
G1 X142.203 Y126.000 E1.1852
G1 X111.797 Y126.000 E2.4139
G1 X111.797 Y113.776 E2.9079
G1 X112.081 Y113.714 E2.9196
G1 X112.241 Y114.067 E2.9353
G1 X112.644 Y114.657 E2.9642
G1 X113.142 Y115.170 E2.9930
G1 X113.719 Y115.590 E3.0219
G1 X114.246 Y115.850 E3.0456
G1 X114.246 Y116.188 E3.0593
G1 X117.516 Y116.190 E3.1914
G1 X117.516 Y115.850 E3.2052
G1 X118.043 Y115.590 E3.2289
G1 X118.620 Y115.170 E3.2578
G1 X119.118 Y114.657 E3.2866
G1 X119.521 Y114.067 E3.3155
G1 X119.817 Y113.417 E3.3444
G1 X119.999 Y112.726 E3.3732
G1 X120.060 Y112.014 E3.4021
G1 X119.999 Y111.302 E3.4310
G1 X119.817 Y110.611 E3.4599
G1 X119.521 Y109.961 E3.4887
G1 X119.118 Y109.371 E3.5176
G1 X118.620 Y108.858 E3.5465
G1 X118.043 Y108.438 E3.5753
G1 X117.516 Y108.178 E3.5991
G1 X117.516 Y107.680 E3.6192
G1 X136.484 Y107.680 E4.3857
G1 X136.484 Y108.178 E4.4059
G1 X114.246 Y108.178 F4800
G92 E0.0000
G1 X113.719 Y108.438 E0.0237 F1350
G1 X113.142 Y108.858 E0.0526
G1 X112.644 Y109.371 E0.0815
G1 X112.241 Y109.961 E0.1103
G1 X112.081 Y110.314 E0.1260
G1 X111.797 Y110.252 E0.1377
G1 X111.797 Y107.680 E0.2417
G1 X114.246 Y107.680 E0.3406
G1 X114.246 Y108.178 E0.3608
G1 X111.397 Y107.280 F4800
G92 E0.0000
G1 X142.603 Y107.280 E1.2611 F1350
G1 X142.603 Y126.400 E2.0337
G1 X111.397 Y126.400 E3.2948
G1 X111.397 Y107.280 E4.0675
; feature outer perimeter
G1 X110.997 Y106.880 F4800
G92 E0.0000
G1 X143.003 Y106.880 E1.2934 F900
G1 X143.003 Y126.800 E2.0984
G1 X110.997 Y126.800 E3.3918
G1 X110.997 Y106.880 E4.1968
; feature inner perimeter
G1 X113.405 Y109.162 F4800
G92 E0.0000
G1 X112.955 Y109.625 E0.0261 F1350
G1 X112.591 Y110.158 E0.0522
G1 X112.323 Y110.746 E0.0783
G1 X112.159 Y111.371 E0.1044
G1 X112.104 Y112.014 E0.1305
G1 X112.159 Y112.657 E0.1566
G1 X112.323 Y113.282 E0.1827
G1 X112.591 Y113.870 E0.2088
G1 X112.955 Y114.403 E0.2349
G1 X113.405 Y114.866 E0.2610
G1 X113.927 Y115.247 E0.2871
G1 X114.506 Y115.532 E0.3132
G1 X114.646 Y115.573 E0.3191
G1 X114.646 Y115.788 E0.3277
G1 X117.116 Y115.789 E0.4275
G1 X117.116 Y115.573 E0.4363
G1 X117.256 Y115.532 E0.4422
G1 X117.835 Y115.247 E0.4683
G1 X118.357 Y114.866 E0.4944
G1 X118.807 Y114.403 E0.5205
G1 X119.171 Y113.870 E0.5466
G1 X119.439 Y113.282 E0.5726
G1 X119.603 Y112.657 E0.5987
G1 X119.658 Y112.014 E0.6248
G1 X119.603 Y111.371 E0.6509
G1 X119.439 Y110.746 E0.6770
G1 X119.171 Y110.158 E0.7031
G1 X118.807 Y109.625 E0.7292
G1 X118.357 Y109.162 E0.7553
G1 X117.835 Y108.781 E0.7814
G1 X117.256 Y108.496 E0.8075
G1 X117.116 Y108.455 E0.8134
G1 X117.116 Y108.239 E0.8221
G1 X114.646 Y108.240 E0.9220
G1 X114.646 Y108.455 E0.9306
G1 X114.506 Y108.496 E0.9365
G1 X113.927 Y108.781 E0.9626
G1 X113.405 Y109.162 E0.9887
; feature outer perimeter
G1 X113.668 Y109.465 F4800
G92 E0.0000
G1 X113.266 Y109.879 E0.0233 F900
G1 X112.941 Y110.356 E0.0466
G1 X112.701 Y110.881 E0.0700
G1 X112.555 Y111.439 E0.0933
G1 X112.505 Y112.014 E0.1166
G1 X112.555 Y112.589 E0.1399
G1 X112.701 Y113.147 E0.1633
G1 X112.941 Y113.672 E0.1866
G1 X113.266 Y114.149 E0.2099
G1 X113.668 Y114.563 E0.2332
G1 X114.135 Y114.903 E0.2566
G1 X114.652 Y115.158 E0.2799
G1 X115.046 Y115.274 E0.2965
G1 X115.046 Y115.388 E0.3011
G1 X116.716 Y115.389 E0.3686
G1 X116.716 Y115.274 E0.3732
G1 X117.110 Y115.158 E0.3898
G1 X117.627 Y114.903 E0.4131
G1 X118.094 Y114.563 E0.4364
G1 X118.496 Y114.149 E0.4598
G1 X118.821 Y113.672 E0.4831
G1 X119.061 Y113.147 E0.5064
G1 X119.207 Y112.589 E0.5297
G1 X119.257 Y112.014 E0.5530
G1 X119.207 Y111.439 E0.5764
G1 X119.061 Y110.881 E0.5997
G1 X118.821 Y110.356 E0.6230
G1 X118.496 Y109.879 E0.6463
G1 X118.094 Y109.465 E0.6697
G1 X117.627 Y109.125 E0.6930
G1 X117.110 Y108.870 E0.7163
G1 X116.716 Y108.754 E0.7329
G1 X116.716 Y108.639 E0.7375
G1 X115.046 Y108.640 E0.8050
G1 X115.046 Y108.754 E0.8096
G1 X114.652 Y108.870 E0.8262
G1 X114.135 Y109.125 E0.8495
G1 X113.668 Y109.465 E0.8729
G92 E0.0000
G1 E-1.0000 F1800
; feature inner perimeter
G1 X134.397 Y111.371 F4800
G1 E0.0000 F1800
G92 E0.0000
G1 X134.342 Y112.014 E0.0261 F1350
G1 X134.397 Y112.657 E0.0522
G1 X134.561 Y113.282 E0.0783
G1 X134.829 Y113.870 E0.1044
G1 X135.193 Y114.403 E0.1305
G1 X135.643 Y114.866 E0.1566
G1 X136.165 Y115.246 E0.1827
G1 X136.744 Y115.532 E0.2088
G1 X136.884 Y115.573 E0.2147
G1 X136.884 Y115.788 E0.2233
G1 X139.354 Y115.789 E0.3232
G1 X139.354 Y115.573 E0.3319
G1 X139.494 Y115.532 E0.3378
G1 X140.073 Y115.246 E0.3639
G1 X140.595 Y114.866 E0.3900
G1 X141.045 Y114.403 E0.4161
G1 X141.409 Y113.870 E0.4422
G1 X141.677 Y113.282 E0.4683
G1 X141.841 Y112.657 E0.4944
G1 X141.896 Y112.014 E0.5205
G1 X141.841 Y111.371 E0.5466
G1 X141.677 Y110.746 E0.5726
G1 X141.409 Y110.158 E0.5987
G1 X141.045 Y109.625 E0.6248
G1 X140.595 Y109.162 E0.6509
G1 X140.073 Y108.781 E0.6770
G1 X139.494 Y108.496 E0.7031
G1 X139.354 Y108.455 E0.7090
G1 X139.354 Y108.239 E0.7178
G1 X136.884 Y108.240 E0.8176
G1 X136.884 Y108.455 E0.8262
G1 X136.744 Y108.496 E0.8321
G1 X136.165 Y108.781 E0.8582
G1 X135.643 Y109.162 E0.8843
G1 X135.193 Y109.625 E0.9104
G1 X134.829 Y110.158 E0.9365
G1 X134.561 Y110.746 E0.9626
G1 X134.397 Y111.371 E0.9887
; feature outer perimeter
G1 X134.793 Y111.439 F4800
G92 E0.0000
G1 X134.743 Y112.014 E0.0233 F900
G1 X134.793 Y112.589 E0.0466
G1 X134.939 Y113.147 E0.0700
G1 X135.179 Y113.672 E0.0933
G1 X135.504 Y114.149 E0.1166
G1 X135.906 Y114.563 E0.1399
G1 X136.373 Y114.903 E0.1633
G1 X136.890 Y115.158 E0.1866
G1 X137.284 Y115.274 E0.2032
G1 X137.284 Y115.388 E0.2078
G1 X138.954 Y115.389 E0.2753
G1 X138.954 Y115.274 E0.2799
G1 X139.348 Y115.158 E0.2965
G1 X139.865 Y114.903 E0.3198
G1 X140.332 Y114.563 E0.3431
G1 X140.734 Y114.149 E0.3665
G1 X141.059 Y113.672 E0.3898
G1 X141.299 Y113.147 E0.4131
G1 X141.445 Y112.589 E0.4364
G1 X141.495 Y112.014 E0.4598
G1 X141.445 Y111.439 E0.4831
G1 X141.299 Y110.881 E0.5064
G1 X141.059 Y110.356 E0.5297
G1 X140.734 Y109.879 E0.5530
G1 X140.332 Y109.465 E0.5764
G1 X139.865 Y109.125 E0.5997
G1 X139.348 Y108.870 E0.6230
G1 X138.954 Y108.754 E0.6396
G1 X138.954 Y108.639 E0.6442
G1 X137.284 Y108.640 E0.7117
G1 X137.284 Y108.754 E0.7163
G1 X136.890 Y108.870 E0.7329
G1 X136.373 Y109.125 E0.7562
G1 X135.906 Y109.465 E0.7796
G1 X135.504 Y109.879 E0.8029
G1 X135.179 Y110.356 E0.8262
G1 X134.939 Y110.881 E0.8495
G1 X134.793 Y111.439 E0.8729
; feature gap fill
G1 X135.822 Y108.126 F4800
G92 E0.0000
G1 X135.716 Y108.020 E0.0060 F1800
G1 X137.293 Y107.900 F4800
G92 E0.0000
G1 X137.013 Y107.620 E0.0160 F1800
G1 X137.579 Y107.620 E0.0388
G1 X137.858 Y107.899 E0.0548
G1 X138.424 Y107.899 E0.0777
