; G-Code generated by Simplify3D(R) Version 4.1.2
; Jul 29, 2020 at 6:18:17 PM
; Settings Summary
;   processName,Process1
;   applyToModels,DewaltBatteryCap
;   profileName,RigidBot Regular Single
;   profileVersion,2020-07-24 09:07:33
;   baseProfile,
;   printMaterial,PLA
;   printQuality,High
;   printExtruders,
;   extruderName,Primary Extruder
;   extruderToolheadNumber,0
;   extruderDiameter,0.4
;   extruderAutoWidth,0
;   extruderWidth,0.4
;   extrusionMultiplier,0.9
;   extruderUseRetract,1
;   extruderRetractionDistance,1
;   extruderExtraRestartDistance,0
;   extruderRetractionZLift,0
;   extruderRetractionSpeed,1800
;   extruderUseCoasting,0
;   extruderCoastingDistance,0.2
;   extruderUseWipe,0
;   extruderWipeDistance,5
;   primaryExtruder,0
;   layerHeight,0.3
;   topSolidLayers,4
;   bottomSolidLayers,4
;   perimeterOutlines,4
;   printPerimetersInsideOut,1
;   startPointOption,2
;   startPointOriginX,0
;   startPointOriginY,0
;   sequentialIslands,0
;   spiralVaseMode,0
;   firstLayerHeightPercentage,90
;   firstLayerWidthPercentage,100
;   firstLayerUnderspeed,0.5
;   useRaft,0
;   raftExtruder,0
;   raftTopLayers,3
;   raftBaseLayers,2
;   raftOffset,3
;   raftSeparationDistance,0.14
;   raftTopInfill,100
;   aboveRaftSpeedMultiplier,0.3
;   useSkirt,1
;   skirtExtruder,0
;   skirtLayers,2
;   skirtOutlines,2
;   skirtOffset,4
;   usePrimePillar,0
;   primePillarExtruder,999
;   primePillarWidth,12
;   primePillarLocation,7
;   primePillarSpeedMultiplier,1
;   useOozeShield,0
;   oozeShieldExtruder,999
;   oozeShieldOffset,2
;   oozeShieldOutlines,1
;   oozeShieldSidewallShape,1
;   oozeShieldSidewallAngle,30
;   oozeShieldSpeedMultiplier,1
;   infillExtruder,0
;   internalInfillPattern,Rectilinear
;   externalInfillPattern,Rectilinear
;   infillPercentage,20
;   outlineOverlapPercentage,15
;   infillExtrusionWidthPercentage,100
;   minInfillLength,5
;   infillLayerInterval,1
;   internalInfillAngles,45,-45
;   overlapInternalInfillAngles,0
;   externalInfillAngles,45,-45
;   generateSupport,1
;   supportExtruder,0
;   supportInfillPercentage,40
;   supportExtraInflation,0
;   supportBaseLayers,0
;   denseSupportExtruder,0
;   denseSupportLayers,0
;   denseSupportInfillPercentage,70
;   supportLayerInterval,1
;   supportHorizontalPartOffset,0.3
;   supportUpperSeparationLayers,1
;   supportLowerSeparationLayers,1
;   supportType,0
;   supportGridSpacing,1
;   maxOverhangAngle,45
;   supportAngles,0,90
;   temperatureName,Primary Extruder Temperature,Heated Bed
;   temperatureNumber,0,2
;   temperatureSetpointCount,1,1
;   temperatureSetpointLayers,1,1
;   temperatureSetpointTemperatures,210,50
;   temperatureStabilizeAtStartup,1,1
;   temperatureHeatedBed,0,1
;   fanLayers,1,2
;   fanSpeeds,0,100
;   blipFanToFullPower,0
;   adjustSpeedForCooling,1
;   minSpeedLayerTime,15
;   minCoolingSpeedSlowdown,20
;   increaseFanForCooling,0
;   minFanLayerTime,45
;   maxCoolingFanSpeed,100
;   increaseFanForBridging,0
;   bridgingFanSpeed,100
;   use5D,1
;   relativeEdistances,0
;   allowEaxisZeroing,1
;   independentExtruderAxes,0
;   includeM10123,0
;   stickySupport,1
;   applyToolheadOffsets,0
;   gcodeXoffset,0
;   gcodeYoffset,0
;   gcodeZoffset,0
;   overrideMachineDefinition,1
;   machineTypeOverride,0
;   strokeXoverride,254
;   strokeYoverride,254
;   strokeZoverride,254
;   originOffsetXoverride,0
;   originOffsetYoverride,0
;   originOffsetZoverride,0
;   homeXdirOverride,-1
;   homeYdirOverride,-1
;   homeZdirOverride,-1
;   flipXoverride,1
;   flipYoverride,-1
;   flipZoverride,1
;   toolheadOffsets,0,0|44,0|0,0|0,0|0,0|0,0
;   overrideFirmwareConfiguration,1
;   firmwareTypeOverride,RepRap (Marlin/Repetier/Sprinter)
;   GPXconfigOverride,r2
;   baudRateOverride,115200
;   overridePrinterModels,1
;   printerModelsOverride
;   startingGcode,G28 ; home all axes
;   layerChangeGcode,
;   retractionGcode,
;   toolChangeGcode,
;   endingGcode,G28 X0,M104 S0 T0 ; turn off extruder,M140 S0 ; turn off bed,M84 ; disable motors
;   exportFileFormat,gcode
;   celebration,0
;   celebrationSong,Random Song
;   postProcessing,
;   defaultSpeed,3600
;   outlineUnderspeed,0.5
;   solidInfillUnderspeed,0.8
;   supportUnderspeed,0.8
;   rapidXYspeed,4800
;   rapidZspeed,1000
;   minBridgingArea,50
;   bridgingExtraInflation,0
;   bridgingExtrusionMultiplier,1
;   bridgingSpeedMultiplier,1
;   useFixedBridgingAngle,0
;   fixedBridgingAngle,0
;   applyBridgingToPerimeters,0
;   filamentDiameters,1.75|1.75|1.75|1.75|1.75|1.75
;   filamentPricesPerKg,46|46|46|46|46|46
;   filamentDensities,1.25|1.25|1.25|1.25|1.25|1.25
;   useMinPrintHeight,0
;   minPrintHeight,0
;   useMaxPrintHeight,0
;   maxPrintHeight,0
;   useDiaphragm,0
;   diaphragmLayerInterval,20
;   robustSlicing,1
;   mergeAllIntoSolid,0
;   onlyRetractWhenCrossingOutline,1
;   retractBetweenLayers,1
;   useRetractionMinTravel,0
;   retractionMinTravel,3
;   retractWhileWiping,0
;   onlyWipeOutlines,1
;   avoidCrossingOutline,0
;   maxMovementDetourFactor,3
;   toolChangeRetractionDistance,12
;   toolChangeExtraRestartDistance,-0.5
;   toolChangeRetractionSpeed,600
;   externalThinWallType,0
;   internalThinWallType,2
;   thinWallAllowedOverlapPercentage,10
;   singleExtrusionMinLength,1
;   singleExtrusionMinPrintingWidthPercentage,50
;   singleExtrusionMaxPrintingWidthPercentage,200
;   singleExtrusionEndpointExtension,0.2
;   horizontalSizeCompensation,0
G90
M82
M106 S0
M140 S50
M190 S50
M104 S210 T0
M109 S210 T0
G28 ; home all axes
; process Process1
; layer 1, Z = 0.270
T0
G92 E0.0000
G1 E-1.0000 F1800
; feature skirt
; tool H0.270 W0.400
G1 Z0.270 F1000
G1 X96.761 Y88.034 F4800
G1 E0.0000 F1800
G92 E0.0000
G1 X98.602 Y86.169 E0.1059 F1800
G1 X98.775 Y86.011 E0.1154
G1 X101.070 Y84.116 E0.2356
G1 X101.260 Y83.974 E0.2452
G1 X103.693 Y82.356 E0.3633
G1 X103.907 Y82.229 E0.3734
G1 X106.142 Y81.069 E0.4752
G1 X106.399 Y80.954 E0.4865
G1 X108.422 Y80.200 E0.5738
G1 X108.733 Y80.108 E0.5869
G1 X110.323 Y79.760 E0.6526
G1 X110.651 Y79.712 E0.6660
G1 X111.701 Y79.636 E0.7086
G1 X111.867 Y79.630 E0.7153
G1 X142.133 Y79.630 E1.9383
G1 X142.299 Y79.636 E1.9451
G1 X143.349 Y79.712 E1.9876
G1 X143.677 Y79.760 E2.0010
G1 X145.267 Y80.108 E2.0668
G1 X145.578 Y80.200 E2.0799
G1 X147.601 Y80.955 E2.1671
G1 X147.858 Y81.068 E2.1785
G1 X150.093 Y82.229 E2.2803
G1 X150.307 Y82.356 E2.2903
G1 X152.740 Y83.974 E2.4084
G1 X152.930 Y84.116 E2.4180
G1 X155.225 Y86.011 E2.5383
G1 X155.398 Y86.169 E2.5477
G1 X157.239 Y88.034 E2.6537
G1 X157.374 Y88.183 E2.6618
G1 X158.382 Y89.400 E2.7256
G1 X158.489 Y89.539 E2.7327
G1 X158.580 Y89.668 E2.7391
G1 X159.117 Y90.407 E2.7760
G1 X159.186 Y90.508 E2.7810
G1 X159.316 Y90.709 E2.7906
G1 X159.707 Y91.261 E2.8180
G1 X161.820 Y93.375 E2.9387
G1 X161.820 Y106.625 E3.4742
G1 X160.820 Y107.625 E3.5314
G1 X160.820 Y142.625 E4.9458
G1 X159.820 Y143.625 E5.0029
G1 X159.820 Y171.625 E6.1344
G1 X157.125 Y174.320 E6.2884
G1 X96.875 Y174.320 E8.7232
G1 X94.180 Y171.625 E8.8772
G1 X94.180 Y138.625 E10.2108
G1 X93.180 Y137.625 E10.2679
G1 X93.180 Y105.625 E11.5611
G1 X92.180 Y104.625 E11.6182
G1 X92.180 Y93.375 E12.0729
G1 X94.293 Y91.262 E12.1936
G1 X94.684 Y90.709 E12.2210
G1 X94.814 Y90.508 E12.2306
G1 X94.883 Y90.407 E12.2356
G1 X95.420 Y89.668 E12.2725
G1 X95.511 Y89.539 E12.2789
G1 X95.618 Y89.400 E12.2860
G1 X96.626 Y88.183 E12.3499
G1 X96.761 Y88.034 E12.3580
G92 E0.0000
G1 E-1.0000 F1800
G1 X97.051 Y88.309 F4800
G1 E0.0000 F1800
G92 E0.0000
G1 X98.880 Y86.457 E0.1052 F1800
G1 X99.037 Y86.313 E0.1138
G1 X101.316 Y84.431 E0.2332
G1 X101.491 Y84.302 E0.2420
G1 X103.906 Y82.695 E0.3592
G1 X104.101 Y82.579 E0.3684
G1 X106.316 Y81.429 E0.4693
G1 X106.550 Y81.325 E0.4796
G1 X108.549 Y80.580 E0.5658
G1 X108.833 Y80.496 E0.5778
G1 X110.395 Y80.153 E0.6424
G1 X110.694 Y80.110 E0.6546
G1 X111.723 Y80.036 E0.6963
G1 X111.875 Y80.030 E0.7024
G1 X142.125 Y80.030 E1.9249
G1 X142.277 Y80.036 E1.9310
G1 X143.306 Y80.110 E1.9727
G1 X143.605 Y80.153 E1.9849
G1 X145.167 Y80.496 E2.0496
G1 X145.451 Y80.580 E2.0615
G1 X147.450 Y81.325 E2.1477
G1 X147.684 Y81.429 E2.1581
G1 X149.899 Y82.579 E2.2589
G1 X150.094 Y82.695 E2.2681
G1 X152.509 Y84.302 E2.3853
G1 X152.684 Y84.431 E2.3941
G1 X154.963 Y86.313 E2.5136
G1 X155.120 Y86.457 E2.5222
G1 X156.949 Y88.309 E2.6273
G1 X157.071 Y88.445 E2.6347
G1 X158.069 Y89.649 E2.6980
G1 X158.166 Y89.776 E2.7044
G1 X158.255 Y89.901 E2.7106
G1 X158.790 Y90.638 E2.7474
G1 X158.854 Y90.730 E2.7519
G1 X158.985 Y90.933 E2.7617
G1 X159.400 Y91.520 E2.7907
G1 X161.420 Y93.540 E2.9062
G1 X161.420 Y106.460 E3.4283
G1 X160.420 Y107.460 E3.4854
G1 X160.420 Y142.460 E4.8998
G1 X159.420 Y143.460 E4.9570
G1 X159.420 Y171.460 E6.0885
G1 X156.960 Y173.920 E6.2291
G1 X97.040 Y173.920 E8.6505
G1 X94.580 Y171.460 E8.7911
G1 X94.580 Y138.460 E10.1247
G1 X93.580 Y137.460 E10.1818
G1 X93.580 Y105.460 E11.4750
G1 X92.580 Y104.460 E11.5321
G1 X92.580 Y93.540 E11.9734
G1 X94.600 Y91.520 E12.0888
G1 X95.015 Y90.933 E12.1179
G1 X95.146 Y90.730 E12.1276
G1 X95.210 Y90.638 E12.1322
G1 X95.745 Y89.901 E12.1690
G1 X95.834 Y89.776 E12.1752
G1 X95.931 Y89.649 E12.1816
G1 X96.929 Y88.445 E12.2448
G1 X97.051 Y88.309 E12.2522
G92 E0.0000
G1 E-1.0000 F1800
; feature inner perimeter
G1 X101.137 Y92.142 F4800
G1 E0.0000 F1800
G92 E0.0000
G1 X102.740 Y90.518 E0.0922 F1350
G1 X104.743 Y88.864 E0.1972
G1 X106.850 Y87.462 E0.2995
G1 X108.707 Y86.497 E0.3840
G1 X110.274 Y85.913 E0.4516
G1 X111.349 Y85.677 E0.4961
G1 X112.001 Y85.630 E0.5225
G1 X141.999 Y85.630 E1.7347
G1 X142.651 Y85.677 E1.7612
G1 X143.726 Y85.913 E1.8057
G1 X145.293 Y86.497 E1.8732
G1 X147.150 Y87.462 E1.9578
G1 X149.257 Y88.864 E2.0601
G1 X151.260 Y90.518 E2.1650
G1 X152.863 Y92.142 E2.2573
G1 X153.344 Y92.705 E2.2872
G1 X153.668 Y93.113 E2.3083
G1 X153.992 Y93.560 E2.3306
G1 X153.301 Y96.230 E2.4420
G1 X152.984 Y97.353 E2.4892
G1 X151.721 Y101.591 E2.6679
G1 X150.780 Y104.815 E2.8036
G1 X149.605 Y108.606 E2.9640
G1 X148.376 Y112.689 E3.1363
G1 X144.598 Y124.845 E3.6507
G1 X140.700 Y136.741 E4.1566
G1 X139.706 Y139.938 E4.2919
G1 X134.374 Y156.053 E4.9778
G1 X124.811 Y156.051 E5.3643
G1 X123.610 Y156.034 E5.4128
G1 X121.605 Y155.971 E5.4939
G1 X121.212 Y155.934 E5.5098
G1 X120.899 Y155.826 E5.5232
G1 X119.537 Y155.975 E5.5786
G1 X115.835 Y144.519 E6.0651
G1 X115.578 Y143.794 E6.0962
G1 X107.210 Y118.027 E7.1910
G1 X101.283 Y98.288 E8.0239
G1 X100.602 Y95.888 E8.1247
G1 X100.007 Y93.562 E8.2217
G1 X100.332 Y93.114 E8.2441
G1 X100.656 Y92.705 E8.2652
G1 X101.137 Y92.142 E8.2951
G1 X100.842 Y91.871 F4800
G92 E0.0000
G1 X102.470 Y90.223 E0.0936 F1350
G1 X104.504 Y88.542 E0.2003
G1 X106.647 Y87.117 E0.3043
G1 X108.545 Y86.131 E0.3907
G1 X110.161 Y85.528 E0.4604
G1 X111.291 Y85.280 E0.5072
G1 X111.987 Y85.230 E0.5353
G1 X142.013 Y85.230 E1.7487
G1 X142.709 Y85.280 E1.7769
G1 X143.839 Y85.528 E1.8237
G1 X145.455 Y86.131 E1.8934
G1 X147.353 Y87.117 E1.9798
G1 X149.496 Y88.542 E2.0838
G1 X151.530 Y90.223 E2.1904
G1 X153.158 Y91.871 E2.2841
G1 X153.653 Y92.451 E2.3149
G1 X153.987 Y92.872 E2.3366
G1 X154.426 Y93.478 E2.3668
G1 X153.687 Y96.335 E2.4861
G1 X153.368 Y97.465 E2.5335
G1 X152.105 Y101.704 E2.7123
G1 X151.163 Y104.930 E2.8481
G1 X149.987 Y108.723 E3.0086
G1 X148.759 Y112.806 E3.1809
G1 X144.979 Y124.966 E3.6955
G1 X141.081 Y136.863 E4.2014
G1 X140.086 Y140.060 E4.3367
G1 X134.663 Y156.453 E5.0345
G1 X124.808 Y156.451 E5.4327
G1 X123.601 Y156.434 E5.4815
G1 X121.581 Y156.370 E5.5632
G1 X121.153 Y156.330 E5.5806
G1 X121.115 Y156.324 E5.5821
G1 X120.853 Y156.233 E5.5933
G1 X119.256 Y156.408 E5.6582
G1 X115.456 Y144.647 E6.1577
G1 X115.199 Y143.923 E6.1888
G1 X106.828 Y118.146 E7.2840
G1 X100.899 Y98.400 E8.1171
G1 X100.216 Y95.992 E8.2183
G1 X99.573 Y93.479 E8.3231
G1 X100.013 Y92.872 E8.3534
G1 X100.347 Y92.451 E8.3751
G1 X100.842 Y91.871 E8.4059
G1 X100.547 Y91.601 F4800
G92 E0.0000
G1 X102.199 Y89.927 E0.0950 F1350
G1 X104.265 Y88.221 E0.2033
G1 X106.443 Y86.772 E0.3090
G1 X108.382 Y85.765 E0.3973
G1 X110.047 Y85.144 E0.4691
G1 X111.234 Y84.883 E0.5182
G1 X111.972 Y84.830 E0.5482
G1 X142.028 Y84.830 E1.7627
G1 X142.766 Y84.883 E1.7926
G1 X143.953 Y85.144 E1.8417
G1 X145.618 Y85.765 E1.9136
G1 X147.557 Y86.772 E2.0018
G1 X149.735 Y88.221 E2.1075
G1 X151.801 Y89.927 E2.2158
G1 X153.453 Y91.601 E2.3109
G1 X153.962 Y92.196 E2.3425
G1 X154.306 Y92.630 E2.3649
G1 X154.861 Y93.396 E2.4031
G1 X154.073 Y96.440 E2.5302
G1 X153.752 Y97.576 E2.5779
G1 X152.489 Y101.818 E2.7567
G1 X151.546 Y105.046 E2.8927
G1 X150.370 Y108.840 E3.0532
G1 X149.141 Y112.924 E3.2255
G1 X145.360 Y125.088 E3.7403
G1 X141.462 Y136.984 E4.2462
G1 X140.467 Y140.183 E4.3815
G1 X134.952 Y156.853 E5.0911
G1 X124.805 Y156.851 E5.5012
G1 X123.591 Y156.834 E5.5502
G1 X121.556 Y156.770 E5.6325
G1 X121.099 Y156.727 E5.6511
G1 X121.014 Y156.712 E5.6546
G1 X120.808 Y156.641 E5.6634
G1 X118.976 Y156.841 E5.7378
G1 X115.077 Y144.776 E6.2503
G1 X114.820 Y144.051 E6.2813
G1 X106.446 Y118.266 E7.3769
G1 X100.515 Y98.512 E8.2104
G1 X99.830 Y96.097 E8.3118
G1 X99.139 Y93.397 E8.4245
G1 X99.694 Y92.630 E8.4627
G1 X100.038 Y92.196 E8.4851
G1 X100.547 Y91.601 E8.5168
; feature outer perimeter
G1 X100.252 Y91.330 F4800
G92 E0.0000
G1 X101.929 Y89.632 E0.0965 F900
G1 X104.027 Y87.899 E0.2064
G1 X106.239 Y86.427 E0.3138
G1 X108.219 Y85.399 E0.4040
G1 X109.934 Y84.759 E0.4779
G1 X111.176 Y84.487 E0.5293
G1 X111.958 Y84.430 E0.5610
G1 X142.042 Y84.430 E1.7767
G1 X142.824 Y84.487 E1.8084
G1 X144.066 Y84.759 E1.8598
G1 X145.781 Y85.399 E1.9337
G1 X147.761 Y86.427 E2.0239
G1 X149.973 Y87.899 E2.1313
G1 X152.071 Y89.632 E2.2412
G1 X153.748 Y91.330 E2.3377
G1 X154.271 Y91.942 E2.3702
G1 X154.625 Y92.388 E2.3932
G1 X155.196 Y93.177 E2.4326
G1 X155.292 Y93.325 E2.4397
G1 X154.459 Y96.545 E2.5741
G1 X154.137 Y97.686 E2.6221
G1 X152.873 Y101.930 E2.8010
G1 X151.929 Y105.162 E2.9370
G1 X150.752 Y108.957 E3.0976
G1 X149.523 Y113.042 E3.2700
G1 X145.741 Y125.209 E3.7849
G1 X141.843 Y137.106 E4.2908
G1 X140.848 Y140.305 E4.4262
G1 X135.241 Y157.253 E5.1476
G1 X124.802 Y157.251 E5.5695
G1 X123.582 Y157.234 E5.6188
G1 X121.531 Y157.169 E5.7017
G1 X121.046 Y157.124 E5.7214
G1 X120.913 Y157.100 E5.7269
G1 X120.762 Y157.048 E5.7333
G1 X118.696 Y157.274 E5.8173
G1 X114.698 Y144.904 E6.3427
G1 X114.441 Y144.180 E6.3737
G1 X106.065 Y118.385 E7.4697
G1 X100.131 Y98.624 E8.3035
G1 X99.444 Y96.201 E8.4053
G1 X98.708 Y93.326 E8.5252
G1 X98.804 Y93.177 E8.5323
G1 X99.375 Y92.388 E8.5717
G1 X99.729 Y91.942 E8.5947
G1 X100.252 Y91.330 E8.6273
; feature solid layer
G1 X149.317 Y89.354 F4800
G92 E0.0000
G1 X153.617 Y93.654 E0.2457 F1440
G1 X153.500 Y94.103 E0.2645
G1 X147.501 Y88.104 E0.6074
G1 X146.977 Y87.755 E0.6328
G1 X146.165 Y87.333 E0.6698
G1 X153.384 Y94.553 E1.0823
G1 X153.268 Y95.002 E1.1011
G1 X145.027 Y86.761 E1.5721
G1 X144.124 Y86.425 E1.6110
G1 X153.151 Y95.452 E2.1269
G1 X153.035 Y95.901 E2.1456
G1 X143.302 Y86.168 E2.7019
G1 X142.602 Y86.015 E2.7309
G1 X142.582 Y86.013 E2.7317
G1 X152.915 Y96.347 E3.3222
G1 X152.790 Y96.788 E3.3408
G1 X141.973 Y85.970 E3.9590
G1 X141.407 Y85.970 E3.9818
G1 X152.666 Y97.229 E4.6253
G1 X152.658 Y97.257 E4.6265
G1 X152.536 Y97.665 E4.6437
G1 X140.842 Y85.970 E5.3120
G1 X140.276 Y85.970 E5.3349
G1 X152.406 Y98.101 E6.0281
G1 X152.277 Y98.537 E6.0465
G1 X139.710 Y85.970 E6.7647
G1 X139.144 Y85.970 E6.7875
G1 X152.147 Y98.972 E7.5306
G1 X152.017 Y99.408 E7.5490
G1 X138.579 Y85.970 E8.3170
G1 X138.013 Y85.970 E8.3399
G1 X151.887 Y99.844 E9.1328
G1 X151.757 Y100.280 E9.1511
G1 X137.447 Y85.970 E9.9689
G1 X136.882 Y85.970 E9.9918
G1 X151.627 Y100.716 E10.8345
G1 X151.498 Y101.152 E10.8529
G1 X136.316 Y85.970 E11.7205
G1 X135.750 Y85.970 E11.7434
G1 X151.368 Y101.588 E12.6359
G1 X151.240 Y102.026 E12.6544
G1 X135.185 Y85.970 E13.5720
G1 X134.619 Y85.970 E13.5948
G1 X151.112 Y102.464 E14.5374
G1 X150.985 Y102.901 E14.5559
G1 X134.053 Y85.970 E15.5235
G1 X133.488 Y85.970 E15.5463
G1 X150.857 Y103.339 E16.5390
G1 X150.729 Y103.777 E16.5574
G1 X132.922 Y85.970 E17.5751
G1 X132.356 Y85.970 E17.5979
G1 X150.601 Y104.215 E18.6406
